X:423
T:Lady Jane Neville
R:Reel
C:William Marshall
B:The Athole Collection
M:C|
L:1/8
K:G
d|g2 dg Bgdg|Bgdg a2ab|g2 dg Bgdg|DAFD G2G:|
c|Bc/d/ dB cd/e/ ec|Bc/d/ dB A2 Ac|Bc/d/ dB cd/e/ ec|
dgfa g2gc|Bc/d/ dB cd/e/ ec|Bc/d/ dB A2 Ac|BdBd cece|
dgaf ~g2g||

